build/svg/cmd/32/preformattedparastyle.svg

<?xml version="1.0" encoding="UTF-8" standalone="no"?>
<svg
   xmlns:dc="http://purl.org/dc/elements/1.1/"
   xmlns:cc="http://creativecommons.org/ns#"
   xmlns:rdf="http://www.w3.org/1999/02/22-rdf-syntax-ns#"
   xmlns:svg="http://www.w3.org/2000/svg"
   xmlns="http://www.w3.org/2000/svg"
   xmlns:sodipodi="http://sodipodi.sourceforge.net/DTD/sodipodi-0.dtd"
   xmlns:inkscape="http://www.inkscape.org/namespaces/inkscape"
   height="32"
   viewBox="0 0 32 32"
   width="32"
   version="1.1"
   id="svg6"
   sodipodi:docname="preformattedparastyle.svg"
   inkscape:export-filename="/home/jupiter007/Libreoffice yaru theme fullcolor/build/cmd/32/preformattedparastyle.png"
   inkscape:export-xdpi="95"
   inkscape:export-ydpi="95"
   inkscape:version="0.92.5 (2060ec1f9f, 2020-04-08)">
  <metadata
     id="metadata12">
    <rdf:RDF>
      <cc:Work
         rdf:about="">
        <dc:format>image/svg+xml</dc:format>
        <dc:type
           rdf:resource="http://purl.org/dc/dcmitype/StillImage" />
      </cc:Work>
    </rdf:RDF>
  </metadata>
  <defs
     id="defs10" />
  <sodipodi:namedview
     pagecolor="#ffffff"
     bordercolor="#666666"
     borderopacity="1"
     objecttolerance="10"
     gridtolerance="10"
     guidetolerance="10"
     inkscape:pageopacity="0"
     inkscape:pageshadow="2"
     inkscape:window-width="1920"
     inkscape:window-height="1011"
     id="namedview8"
     showgrid="true"
     inkscape:zoom="14.75"
     inkscape:cx="8.2467239"
     inkscape:cy="20.584367"
     inkscape:window-x="0"
     inkscape:window-y="32"
     inkscape:window-maximized="1"
     inkscape:current-layer="svg6">
    <inkscape:grid
       type="xygrid"
       id="grid822" />
  </sodipodi:namedview>
  <path
     style="fill:#000000;fill-opacity:1;stroke:#000000;opacity:0.6;stroke-width:2;stroke-miterlimit:4;stroke-dasharray:none;stroke-linejoin:round"
     fill="#762572"
     id="path826"
     d="m25 15c-2.209139 0-4 1.790853-4 4s1.790861 4 4 4v2 1 1h1v-11h1v11h1v-12h-2z" />
  <path
     sodipodi:nodetypes="cccccccccccccc"
     style="fill:#000000;stroke-width:2;stroke:#000000;opacity:0.6;stroke-miterlimit:4;stroke-dasharray:none;stroke-linejoin:round"
     inkscape:connector-curvature="0"
     id="path824"
     d="M 17.471531,4.9921406 12.380788,23.992188 h 1.794748 L 19.327005,5.0056342 Z M 9.6785427,8.4466949 4.5641842,13.878171 4.0041685,14.478668 4.5641842,15.075793 9.6481806,20.537633 10.882914,19.34001 6.3555587,14.478668 10.913276,9.6476909 Z" />
  <path
     d="m25 15c-2.209139 0-4 1.790853-4 4s1.790861 4 4 4v2 1 1h1v-11h1v11h1v-12h-2z"
     id="path2"
     fill="#762572"
     style="fill:#aee3f8;fill-opacity:1" />
  <path
     d="M 17.471531,4.9921406 12.380788,23.992188 h 1.794748 L 19.327005,5.0056342 Z M 9.6785427,8.4466949 4.5641842,13.878171 4.0041685,14.478668 4.5641842,15.075793 9.6481806,20.537633 10.882914,19.34001 6.3555587,14.478668 10.913276,9.6476909 Z"
     id="path4"
     inkscape:connector-curvature="0"
     style="fill:#ffffff;stroke-width:1.72727704"
     sodipodi:nodetypes="cccccccccccccc" />
</svg>

<svg xmlns="http://www.w3.org/2000/svg" height="32" width="32"><path d="M25 15a4 4 0 100 8v4h1V16h1v11h1V15h-2zM17.472 4.992l-5.091 19h1.795l5.151-18.986zM9.679 8.447l-5.115 5.431-.56.6.56.598 5.084 5.462 1.235-1.198-4.527-4.861 4.557-4.831z" stroke="#000" opacity=".6" stroke-width="2" stroke-linejoin="round"/><path d="M25 15a4 4 0 100 8v4h1V16h1v11h1V15h-2z" fill="#aee3f8"/><path d="M17.472 4.992l-5.091 19h1.795l5.151-18.986zM9.679 8.447l-5.115 5.431-.56.6.56.598 5.084 5.462 1.235-1.198-4.527-4.861 4.557-4.831z" fill="#fff"/></svg>
